client/public/img/game/shared/projectiles/proj_frag_nopin.svg

<?xml version="1.0" encoding="UTF-8" standalone="no"?>
<svg
   width="57"
   height="65"
   viewBox="0 0 57 65"
   fill="none"
   version="1.1"
   id="svg7"
   xmlns="http://www.w3.org/2000/svg"
   xmlns:svg="http://www.w3.org/2000/svg">
  <defs
     id="defs7" />
  <path
     d="M31.23 19.043C30.9538 19.043 30.73 19.2668 30.73 19.543V28.752C30.73 29.0281 30.9538 29.252 31.23 29.252H36.1337H41.0424C41.3186 29.252 41.5424 29.0281 41.5424 28.752V19.543C41.5424 19.2668 41.3186 19.043 41.0424 19.043H31.23Z"
     fill="#575946"
     stroke="#191A14"
     stroke-width="4"
     stroke-miterlimit="3.99393"
     id="path1" />
  <path
     d="M36.1362 25.9688C31.2816 25.97 26.6261 27.9012 23.1939 31.3374C19.7617 34.7737 17.8338 39.4337 17.834 44.2926C17.8337 49.1515 19.7617 53.8114 23.1939 57.2477C26.6261 60.684 31.2815 62.6151 36.1362 62.6164C38.5405 62.6165 40.9212 62.1427 43.1425 61.2219C45.3638 60.3011 47.3821 58.9514 49.0822 57.2498C50.7823 55.5482 52.1309 53.5281 53.0509 51.3049C53.971 49.0817 54.4444 46.6989 54.4443 44.2926C54.4444 41.8862 53.971 39.5033 53.0509 37.2801C52.1309 35.0569 50.7823 33.0369 49.0822 31.3353C47.3822 29.6338 45.3638 28.284 43.1425 27.3632C40.9212 26.4424 38.5405 25.9686 36.1362 25.9688Z"
     fill="#575946"
     id="path2" />
  <path
     d="M54.3784 42.7383H17.8998C17.8599 43.2088 17.8379 43.6823 17.8345 44.1578V44.4274C17.8379 44.9032 17.8599 45.377 17.8999 45.8478H54.3783C54.4203 45.3542 54.4423 44.8584 54.4441 44.3615V44.2238C54.4423 43.7271 54.4203 43.2316 54.3784 42.7383Z"
     fill="#404233"
     id="path3" />
  <path
     d="M42.5688 5.81197C42.5688 6.20433 42.6462 6.59289 42.7964 6.95539C42.9467 7.31789 43.167 7.64724 43.4446 7.92468C43.7223 8.20213 44.0518 8.42223 44.4146 8.57238C44.7773 8.72253 45.1662 8.79972 45.5588 8.79972C45.9515 8.79972 46.3403 8.72253 46.7031 8.57238C47.0659 8.42223 47.3954 8.20213 47.6731 7.92468C47.9507 7.64724 48.171 7.31789 48.3213 6.95539C48.4715 6.59289 48.5488 6.20433 48.5488 5.81197C48.5488 5.4196 48.4715 5.03114 48.3213 4.66865C48.171 4.30615 47.9507 3.97669 47.6731 3.69925C47.3954 3.42181 47.0659 3.2018 46.7031 3.05166C46.3403 2.90151 45.9515 2.82421 45.5588 2.82422C45.1662 2.82421 44.7773 2.90151 44.4146 3.05166C44.0518 3.2018 43.7223 3.42181 43.4446 3.69925C43.167 3.97669 42.9467 4.30615 42.7964 4.66865C42.6462 5.03114 42.5688 5.4196 42.5688 5.81197Z"
     fill="#47443C"
     stroke="#191815"
     stroke-width="4"
     stroke-miterlimit="3.99393"
     id="path4" />
  <path
     d="M40.278 4.68359L41.5423 5.81084L45.5103 5.81084L40.278 12.9432L41.5423 19.0419C41.5423 19.0419 30.4418 19.0419 30.2903 19.0419H22.229L27.338 4.68359L40.278 4.68359Z"
     fill="#4E4735"
     stroke="#1B1913"
     stroke-width="4"
     stroke-miterlimit="3.99393"
     stroke-linecap="square"
     id="path5" />
  <path
     d="M24.3769 13.0059L9.40768 19.1891L3.35352 42.2648L9.52001 44.5211L15.5742 21.8396L22.2288 19.0428L24.3769 13.0059Z"
     fill="#4E4735"
     stroke="#1B1913"
     stroke-width="4"
     stroke-miterlimit="3.99393"
     id="path6" />
  <path
     d="M36.1362 25.9688C31.2816 25.97 26.6261 27.9012 23.1939 31.3374C19.7617 34.7737 17.8338 39.4337 17.834 44.2926C17.8337 49.1515 19.7617 53.8114 23.1939 57.2477C26.6261 60.684 31.2815 62.6151 36.1362 62.6164C38.5405 62.6165 40.9212 62.1427 43.1425 61.2219C45.3638 60.3011 47.3821 58.9514 49.0822 57.2498C50.7823 55.5482 52.1309 53.5281 53.0509 51.3049C53.971 49.0817 54.4444 46.6989 54.4443 44.2926C54.4444 41.8862 53.971 39.5033 53.0509 37.2801C52.1309 35.0569 50.7823 33.0369 49.0822 31.3353C47.3822 29.6338 45.3638 28.284 43.1425 27.3632C40.9212 26.4424 38.5405 25.9686 36.1362 25.9688Z"
     stroke="#191A14"
     stroke-width="4"
     stroke-miterlimit="3.99393"
     id="path7" />
</svg>

<svg xmlns="http://www.w3.org/2000/svg" width="57" height="65" fill="none"><path fill="#575946" stroke="#191A14" stroke-miterlimit="3.994" stroke-width="4" d="M31.23 19.043a.5.5 0 0 0-.5.5v9.209a.5.5 0 0 0 .5.5h9.812a.5.5 0 0 0 .5-.5v-9.209a.5.5 0 0 0-.5-.5z"/><path fill="#575946" d="M36.136 25.969a18.3 18.3 0 0 0-12.942 5.368 18.33 18.33 0 0 0-5.36 12.956 18.33 18.33 0 0 0 5.36 12.955 18.3 18.3 0 0 0 19.949 3.974 18.3 18.3 0 0 0 9.908-9.917 18.335 18.335 0 0 0-9.909-23.942 18.3 18.3 0 0 0-7.006-1.394"/><path fill="#404233" d="M54.378 42.738H17.9q-.06.706-.066 1.42v.27q.006.713.066 1.42h36.478q.063-.742.066-1.486v-.138a18 18 0 0 0-.066-1.486"/><path fill="#47443C" stroke="#191815" stroke-miterlimit="3.994" stroke-width="4" d="M42.569 5.812a2.987 2.987 0 0 0 4.134 2.76 2.99 2.99 0 0 0 1.618-3.903 2.99 2.99 0 0 0-5.752 1.143Z"/><path fill="#4E4735" stroke="#1B1913" stroke-linecap="square" stroke-miterlimit="3.994" stroke-width="4" d="m40.278 4.684 1.264 1.127h3.968l-5.232 7.132 1.264 6.099H22.23l5.109-14.358z"/><path fill="#4E4735" stroke="#1B1913" stroke-miterlimit="3.994" stroke-width="4" d="m24.377 13.006-14.97 6.183-6.053 23.076L9.52 44.52l6.054-22.681 6.655-2.797z"/><path stroke="#191A14" stroke-miterlimit="3.994" stroke-width="4" d="M36.136 25.969a18.3 18.3 0 0 0-12.942 5.368 18.33 18.33 0 0 0-5.36 12.956 18.33 18.33 0 0 0 5.36 12.955 18.3 18.3 0 0 0 19.949 3.974 18.3 18.3 0 0 0 9.908-9.917 18.335 18.335 0 0 0-9.909-23.942 18.3 18.3 0 0 0-7.006-1.394Z"/></svg>
